; Generated by Kiri:Moto 4.0.D1
; Fri Dec 01 2023 15:26:11 GMT-0600 (Central Standard Time)
; Bed left:0 right:220 top:175 bottom:-175
; Bed type: belt
; Target: internal
; --- process ---
; processName = default
; sliceHeight = 0.2
; sliceShells = 3
; sliceShellOrder = in-out
; sliceLayerStart = last
; sliceLayerStartX = 0
; sliceLayerStartY = 0
; sliceLineWidth = 0
; sliceFillGrow = 0
; sliceFillAngle = 45
; sliceFillWidth = 1
; sliceFillOverlap = 0.3
; sliceFillSparse = 0.2
; sliceFillRepeat = 1
; sliceFillRate = 0
; sliceSolidRate = 0
; sliceFillType = linear
; sliceSupportDensity = 0.25
; sliceSupportOffset = 0.4
; sliceSupportGap = 1
; sliceSupportSize = 6
; sliceSupportArea = 1
; sliceSupportSpan = 5
; sliceSupportGrow = 0
; sliceSupportExtra = 0
; sliceSupportAngle = 50
; sliceSupportNozzle = 0
; sliceSupportEnable = false
; sliceSupportOutline = true
; sliceSolidMinArea = 1
; sliceBottomLayers = 3
; sliceTopLayers = 3
; firstSliceHeight = 0.25
; firstLayerRate = 10
; firstLayerFillRate = 35
; firstLayerPrintMult = 1.15
; firstLayerLineMult = 1
; firstLayerYOffset = 0
; firstLayerNozzleTemp = 0
; firstLayerBedTemp = 0
; firstLayerBrim = 0
; firstLayerBrimIn = 0
; firstLayerBrimTrig = 0
; firstLayerBrimGap = 0
; firstLayerBeltLead = 3
; firstLayerBeltBump = 0
; firstLayerFanSpeed = 0
; firstLayerFlatten = 0
; outputRaft = false
; outputRaftSpacing = 0.2
; outputDraftShield = false
; outputTemp = 210
; outputBedTemp = 70
; outputFeedrate = 50
; outputFinishrate = 50
; outputSeekrate = 80
; outputShellMult = 1.25
; outputFillMult = 1.25
; outputSparseMult = 1.25
; outputFanSpeed = 255
; outputRetractDist = 4
; outputRetractSpeed = 30
; outputRetractWipe = 0
; outputRetractDwell = 30
; outputBrimCount = 2
; outputBrimOffset = 2
; outputShortPoly = 100
; outputMinSpeed = 10
; outputCoastDist = 0.1
; outputPurgeTower = 0
; outputBeltFirst = false
; outputAvoidGaps = true
; outputAlternating = false
; outputLayerRetract = true
; outputOriginCenter = false
; outputLoops = 0
; outputInvertX = false
; outputInvertY = false
; sliceDetectThin = off
; sliceMinHeight = 0
; sliceAdaptive = false
; zHopDistance = 0
; arcTolerance = 0
; antiBacklash = 0
; ranges = []
; sName = CR30
; detectThinWalls = true
; outputLoopLayers = null
; gcodePause = 
; --- startup ---
G28                ; home axes
G1 Y50 F1000       ; lift y axis off belt for heating
M107               ; turn off filament cooling fan
M140 S70           ; set bed temp
M104 S210          ; set hot end temp
M105               ; report temps
M190 S70           ; wait for bed
M105               ; report temps
M109 S210          ; wait for hot end
M82                ; absolute extrusion mode
G90                ; absolute positioning mode
G21                ; use metric values
G92 E0 Z0          ; zero E/Z axes
G1 Y0.15           ; move head to belt
G1 X200 E35 F800   ; extruder purge line
G1 Z0.3            ; shift belt away 0.3mm
G1 X0 E70          ; extruder purge line
G92 Z0 E0          ; reset bed + extruder position
M117 CR-30 Printing...
G1 E-4.0000 F1800 ; e-retract 4
;; --- layer 0 (0.200 @ 84.9) ---
M106 S255
; feature sparse infill
G1 X139.2681 Y0.1028 Z120.0667 F4800
G1 E0.0000 F1800 ; e-engage 4
G4 P30
G1 X145.7319 E0.2427 F600
G1 E-3.7573 F1800 ; e-retract 4
;; --- layer 1 (0.200 @ 85.1) ---
G1 F4800
; feature sparse infill
G1 E0.2427 F1800 ; e-engage 4
G4 P30
G1 Y0.1028 Z120.3496 E0.2493 F600
G1 X139.2681 E0.4920
G1 E-3.5080 F1800 ; e-retract 4
;; --- layer 2 (0.200 @ 85.3) ---
G1 F4800
; feature sparse infill
G1 E0.4920 F1800 ; e-engage 4
G4 P30
G1 Y0.1028 Z120.6324 E0.4985 F600
G1 X145.7319 E0.7412
G1 E-3.2588 F1800 ; e-retract 4
;; --- layer 3 (0.200 @ 85.5) ---
G1 F4800
; feature sparse infill
G1 E0.7412 F1800 ; e-engage 4
G4 P30
G1 Y0.1028 Z120.9153 E0.7478 F600
G1 X139.2681 E0.9905
G1 E-3.0095 F1800 ; e-retract 4
;; --- layer 4 (0.200 @ 85.7) ---
G1 F4800
; feature sparse infill
G1 E0.9905 F1800 ; e-engage 4
G4 P30
G1 Y0.1028 Z121.1981 E0.9970 F600
G1 X145.7319 E1.2398
G1 E-2.7602 F1800 ; e-retract 4
;; --- layer 5 (0.200 @ 85.9) ---
G1 F4800
; feature sparse infill
G1 E1.2398 F1800 ; e-engage 4
G4 P30
G1 Y0.1028 Z121.4809 E1.2463 F600
G1 X139.2681 E1.4890
G1 E-2.5110 F1800 ; e-retract 4
;; --- layer 6 (0.200 @ 86.1) ---
G1 F4800
; feature sparse infill
G1 E1.4890 F1800 ; e-engage 4
G4 P30
G1 Y0.1028 Z121.7638 E1.4955 F600
G1 X145.7319 E1.7383
G1 E-2.2617 F1800 ; e-retract 4
;; --- layer 7 (0.200 @ 86.3) ---
G1 F4800
; feature sparse infill
G1 E1.7383 F1800 ; e-engage 4
G4 P30
G1 Y0.1028 Z122.0466 E1.7448 F600
G1 X139.2681 E1.9875
G1 E-2.0125 F1800 ; e-retract 4
;; --- layer 8 (0.200 @ 86.5) ---
G1 F4800
; feature sparse infill
G1 E1.9875 F1800 ; e-engage 4
G4 P30
G1 Y0.1028 Z122.3295 E1.9940 F600
G1 X145.7319 E2.2368
G1 E-1.7632 F1800 ; e-retract 4
;; --- layer 9 (0.200 @ 86.7) ---
G1 F4800
; feature sparse infill
G1 E2.2368 F1800 ; e-engage 4
G4 P30
G1 Y0.1028 Z122.6123 E2.2433 F600
G1 X139.2681 E2.4860
G1 E-1.5140 F1800 ; e-retract 4
;; --- layer 10 (0.200 @ 86.9) ---
G1 F4800
; feature shells
G1 X142.5353 Y0.1028 Z122.8952
G1 E2.4860 F1800 ; e-engage 4
G4 P30
G1 X142.4647 E2.4887 F600
G1 X142.4313 Y0.4442 Z122.8952 E2.4999 F706
G1 X142.4137 Y1.8068 Z122.8952 E2.5444
G1 X142.4458 Y1.9625 Z122.8952 E2.5496
G1 X142.5000 Y2.2631 Z122.8952 E2.5595
G1 X142.5542 Y1.9625 Z122.8952 E2.5695
G1 X142.5863 Y1.8068 Z122.8952 E2.5747
G1 X142.5687 Y0.4442 Z122.8952 E2.6192
G1 X142.5450 Y0.2023 Z122.8952 E2.6271
G1 X142.5353 Y0.1028 Z122.8952 F4800
G1 E-1.3729 F1800 ; e-retract 4
;; --- layer 11 (0.200 @ 87.1) ---
G1 F4800
; feature shells
G1 X142.5000 Y1.8800 Z123.1780
G1 E2.6271 F1800 ; e-engage 4
G4 P30
G1 X142.2886 Y3.1374 Z123.1780 E2.6688 F829
G1 X141.9956 Y6.1129 Z123.1780 E2.7664
G1 X142.4999 Y6.1418 Z123.1780 E2.7829
G1 X143.0044 Y6.1129 Z123.1780 E2.7994
G1 X142.7114 Y3.1374 Z123.1780 E2.8970
G1 X142.5166 Y1.9786 Z123.1780 E2.9354
G1 X142.5000 Y1.8800 Z123.1780 F4800
G1 X142.8656 Y1.6419 Z123.1780
G1 X142.6955 Y0.9191 Z123.1780 E2.9596 F938
G1 X142.5725 Y0.5175 Z123.1780 E2.9734
G1 X142.5669 Y0.5028 Z123.1780 E2.9739
G1 X142.4331 E2.9782
G1 X142.4275 Y0.5175 Z123.1780 E2.9788
G1 X142.3045 Y0.9191 Z123.1780 E2.9925
G1 X142.1344 Y1.6419 Z123.1780 E3.0167
G1 X141.8919 Y3.0846 Z123.1780 E3.0645
G1 X141.5694 Y6.3589 Z123.1780 E3.1719
G1 X141.5680 Y6.4697 Z123.1780 E3.1755
G1 X141.7365 Y6.4988 Z123.1780 E3.1811
G1 X142.5000 Y6.5424 Z123.1780 E3.2061
G1 X143.2645 Y6.4987 Z123.1780 E3.2311
G1 X143.4320 Y6.4698 Z123.1780 E3.2366
G1 X143.4306 Y6.3589 Z123.1780 E3.2403
G1 X143.1081 Y3.0846 Z123.1780 E3.3477
G1 X142.8822 Y1.7406 Z123.1780 E3.3922
G1 X142.8656 Y1.6419 Z123.1780 F4800
G1 X143.2579 Y1.5629 Z123.1780
G1 X143.0819 Y0.8146 Z123.1780 E3.4173 F1007
G1 X142.9509 Y0.3872 Z123.1780 E3.4319
G1 X142.8545 Y0.1307 Z123.1780 E3.4408
G1 X142.8419 Y0.1028 Z123.1780 E3.4418
G1 X142.1581 E3.4675 F600
G1 X142.1455 Y0.1307 Z123.1780 E3.4685 F1007
G1 X142.0491 Y0.3872 Z123.1780 E3.4775
G1 X141.9181 Y0.8146 Z123.1780 E3.4921
G1 X141.7421 Y1.5629 Z123.1780 E3.5172
G1 X141.4951 Y3.0317 Z123.1780 E3.5658
G1 X141.1697 Y6.3367 Z123.1780 E3.6742
G1 X141.1636 Y6.8059 Z123.1780 E3.6896
G1 X141.6909 Y6.8968 Z123.1780 E3.7070
G1 X142.5000 Y6.9431 Z123.1780 E3.7335
G1 X143.3101 Y6.8967 Z123.1780 E3.7600
G1 X143.8364 Y6.8059 Z123.1780 E3.7774
G1 X143.8303 Y6.3367 Z123.1780 E3.7928
G1 X143.5049 Y3.0317 Z123.1780 E3.9012
G1 X143.2745 Y1.6615 Z123.1780 E3.9466
G1 X143.2579 Y1.5629 Z123.1780 F4800
; feature sparse infill
G1 X142.6461 Y5.3313 Z123.1780
G1 X142.3539 E3.9561 F3000
G1 E-0.0439 F1800 ; e-retract 4
;; --- layer 12 (0.200 @ 87.3) ---
G1 F4800
; feature shells
G1 X142.5000 Y1.0258 Z123.4608
G1 E3.9561 F1800 ; e-engage 4
G4 P30
G1 X142.4398 Y1.1584 Z123.4608 E3.9609 F914
G1 X142.2779 Y1.5888 Z123.4608 E3.9759
G1 X142.0529 Y2.3254 Z123.4608 E4.0010
G1 X141.7409 Y3.6505 Z123.4608 E4.0455
G1 X141.3084 Y6.2222 Z123.4608 E4.1306
G1 X141.8033 Y6.3075 Z123.4608 E4.1470
G1 X142.5000 Y6.3474 Z123.4608 E4.1698
G1 X143.1967 Y6.3075 Z123.4608 E4.1926
G1 X143.6916 Y6.2222 Z123.4608 E4.2090
G1 X143.2591 Y3.6505 Z123.4608 E4.2942
G1 X142.9471 Y2.3254 Z123.4608 E4.3386
G1 X142.7221 Y1.5888 Z123.4608 E4.3638
G1 X142.5602 Y1.1584 Z123.4608 E4.3788
G1 X142.5414 Y1.1169 Z123.4608 E4.3803
G1 X142.5000 Y1.0258 Z123.4608 F4800
G1 X142.7996 Y0.7182 Z123.4608
G1 X142.6981 Y0.5310 Z123.4608 E4.3872 F987
G1 X142.6801 Y0.5028 Z123.4608 E4.3883
G1 X142.3199 E4.4001
G1 X142.3018 Y0.5311 Z123.4608 E4.4012
G1 X142.2004 Y0.7182 Z123.4608 E4.4081
G1 X142.0701 Y1.0051 Z123.4608 E4.4184
G1 X141.8990 Y1.4598 Z123.4608 E4.4343
G1 X141.6666 Y2.2210 Z123.4608 E4.4603
G1 X141.3486 Y3.5714 Z123.4608 E4.5056
G1 X140.9008 Y6.2342 Z123.4608 E4.5937
G1 X140.8710 Y6.5368 Z123.4608 E4.6036
G1 X141.0049 Y6.5757 Z123.4608 E4.6082
G1 X141.7577 Y6.7056 Z123.4608 E4.6331
G1 X142.5000 Y6.7480 Z123.4608 E4.6574
G1 X143.2423 Y6.7056 Z123.4608 E4.6817
G1 X143.9951 Y6.5757 Z123.4608 E4.7066
G1 X144.1290 Y6.5368 Z123.4608 E4.7112
G1 X144.0992 Y6.2342 Z123.4608 E4.7211
G1 X143.6514 Y3.5714 Z123.4608 E4.8093
G1 X143.3334 Y2.2210 Z123.4608 E4.8546
G1 X143.1010 Y1.4598 Z123.4608 E4.8806
G1 X142.9299 Y1.0051 Z123.4608 E4.8965
G1 X142.8409 Y0.8092 Z123.4608 E4.9035
G1 X142.7996 Y0.7182 Z123.4608 F4800
G1 X143.1579 Y0.5399 Z123.4608
G1 X143.0430 Y0.3279 Z123.4608 E4.9114 F1054
G1 X142.9490 Y0.1806 Z123.4608 E4.9171
G1 X142.8909 Y0.1028 Z123.4608 E4.9202
G1 X142.1096 E4.9496 F600
G1 X142.0508 Y0.1809 Z123.4608 E4.9528 F1054
G1 X141.9570 Y0.3279 Z123.4608 E4.9585
G1 X141.8421 Y0.5399 Z123.4608 E4.9663
G1 X141.7004 Y0.8518 Z123.4608 E4.9775
G1 X141.5202 Y1.3308 Z123.4608 E4.9942
G1 X141.2802 Y2.1167 Z123.4608 E5.0211
G1 X140.9563 Y3.4923 Z123.4608 E5.0672
G1 X140.5041 Y6.1813 Z123.4608 E5.1562
G1 X140.4403 Y6.8281 Z123.4608 E5.1775
G1 X140.9148 Y6.9661 Z123.4608 E5.1936
G1 X141.7121 Y7.1036 Z123.4608 E5.2200
G1 X142.5000 Y7.1487 Z123.4608 E5.2458
G1 X143.2879 Y7.1036 Z123.4608 E5.2716
G1 X144.0852 Y6.9661 Z123.4608 E5.2980
G1 X144.5597 Y6.8281 Z123.4608 E5.3141
G1 X144.4959 Y6.1813 Z123.4608 E5.3353
G1 X144.0437 Y3.4923 Z123.4608 E5.4244
G1 X143.7198 Y2.1167 Z123.4608 E5.4705
G1 X143.4798 Y1.3308 Z123.4608 E5.4973
G1 X143.2996 Y0.8518 Z123.4608 E5.5141
G1 X143.1993 Y0.6309 Z123.4608 E5.5220
G1 X143.1579 Y0.5399 Z123.4608 F4800
; feature solid fill
G1 X141.7017 Y5.5721 Z123.4608
G1 X142.1780 Y6.0485 Z123.4608 E5.5495 F3000
G1 X142.7480 Y6.0528 Z123.4608 E5.5727
G1 X141.7831 Y5.0879 Z123.4608 E5.6284
G1 X141.8645 Y4.6036 Z123.4608 E5.6485
G1 X143.2714 Y6.0105 Z123.4608 E5.7297
G1 X143.2781 Y5.4515 Z123.4608 E5.7525
G1 X141.9460 Y4.1194 Z123.4608 E5.8294
G1 X142.0313 Y3.6390 Z123.4608 E5.8493
G1 X143.1637 Y4.7714 Z123.4608 E5.9147
G1 X143.0493 Y4.0914 Z123.4608 E5.9428
G1 X142.1391 Y3.1811 Z123.4608 E5.9954
G1 X142.2469 Y2.7233 Z123.4608 E6.0146
G1 X142.9090 Y3.3854 Z123.4608 E6.0528
G1 X142.5483 Y2.4590 Z123.4608 E6.0934
G1 X142.5026 Y1.8476 Z123.4608 E6.1184
G1 E2.1184 F1800 ; e-retract 4
;; --- layer 13 (0.200 @ 87.5) ---
G1 F4800
; feature shells
G1 X142.5000 Y0.9453 Z123.7437
G1 E6.1184 F1800 ; e-engage 4
G4 P30
G1 X142.4324 Y1.0358 Z123.7437 E6.1221 F952
G1 X142.3235 Y1.2063 Z123.7437 E6.1287
G1 X142.1808 Y1.4699 Z123.7437 E6.1385
G1 X141.9948 Y1.8792 Z123.7437 E6.1532
G1 X141.7490 Y2.5322 Z123.7437 E6.1759
G1 X141.4150 Y3.6274 Z123.7437 E6.2133
G1 X140.9550 Y5.5800 Z123.7437 E6.2788
G1 X140.8328 Y6.3071 Z123.7437 E6.3029
G1 X141.1386 Y6.3960 Z123.7437 E6.3133
G1 X141.8249 Y6.5144 Z123.7437 E6.3360
G1 X142.5000 Y6.5530 Z123.7437 E6.3581
G1 X143.1751 Y6.5144 Z123.7437 E6.3802
G1 X143.8615 Y6.3960 Z123.7437 E6.4029
G1 X144.1672 Y6.3071 Z123.7437 E6.4133
G1 X144.0449 Y5.5800 Z123.7437 E6.4374
G1 X143.5850 Y3.6274 Z123.7437 E6.5029
G1 X143.2510 Y2.5322 Z123.7437 E6.5403
G1 X143.0052 Y1.8792 Z123.7437 E6.5631
G1 X142.8192 Y1.4699 Z123.7437 E6.5778
G1 X142.6765 Y1.2063 Z123.7437 E6.5876
G1 X142.5676 Y1.0358 Z123.7437 E6.5942
G1 X142.5599 Y1.0254 Z123.7437 E6.5946
G1 X142.5000 Y0.9453 Z123.7437 F4800
G1 X142.7957 Y0.6728 Z123.7437
G1 X142.7162 Y0.5821 Z123.7437 E6.5985 F1021
G1 X142.6532 Y0.5217 Z123.7437 E6.6014
G1 X142.6297 Y0.5028 Z123.7437 E6.6024
G1 X142.3703 E6.6108
G1 X142.3468 Y0.5217 Z123.7437 E6.6118
G1 X142.2838 Y0.5821 Z123.7437 E6.6147
G1 X142.2043 Y0.6728 Z123.7437 E6.6186
G1 X142.1031 Y0.8081 Z123.7437 E6.6241
G1 X141.9786 Y1.0033 Z123.7437 E6.6317
G1 X141.8224 Y1.2917 Z123.7437 E6.6424
G1 X141.6252 Y1.7259 Z123.7437 E6.6580
G1 X141.3702 Y2.4032 Z123.7437 E6.6816
G1 X141.0287 Y3.5231 Z123.7437 E6.7198
G1 X140.5627 Y5.5009 Z123.7437 E6.7862
G1 X140.3793 Y6.5918 Z123.7437 E6.8223
G1 X141.0484 Y6.7863 Z123.7437 E6.8450
G1 X141.7793 Y6.9124 Z123.7437 E6.8693
G1 X142.5000 Y6.9536 Z123.7437 E6.8928
G1 X143.2207 Y6.9124 Z123.7437 E6.9164
G1 X143.9516 Y6.7863 Z123.7437 E6.9406
G1 X144.6207 Y6.5917 Z123.7437 E6.9634
G1 X144.4373 Y5.5009 Z123.7437 E6.9995
G1 X143.9713 Y3.5231 Z123.7437 E7.0658
G1 X143.6298 Y2.4032 Z123.7437 E7.1041
G1 X143.3749 Y1.7259 Z123.7437 E7.1277
G1 X143.1776 Y1.2917 Z123.7437 E7.1433
G1 X143.0214 Y1.0033 Z123.7437 E7.1540
G1 X142.8969 Y0.8081 Z123.7437 E7.1616
G1 X142.8556 Y0.7529 Z123.7437 E7.1638
G1 X142.7957 Y0.6728 Z123.7437 F4800
G1 X143.1068 Y0.4208 Z123.7437
G1 X143.0054 Y0.3053 Z123.7437 E7.1688 F1087
G1 X142.9173 Y0.2208 Z123.7437 E7.1728
G1 X142.8398 Y0.1586 Z123.7437 E7.1761
G1 X142.7748 Y0.1158 Z123.7437 E7.1786
G1 X142.7506 Y0.1028 Z123.7437 E7.1795
G1 X142.2487 E7.1983 F600
G1 X142.2334 Y0.1109 Z123.7437 E7.1989 F1087
G1 X142.1599 Y0.1589 Z123.7437 E7.2018
G1 X142.0827 Y0.2208 Z123.7437 E7.2050
G1 X141.9946 Y0.3053 Z123.7437 E7.2090
G1 X141.8932 Y0.4208 Z123.7437 E7.2140
G1 X141.7739 Y0.5805 Z123.7437 E7.2205
G1 X141.6337 Y0.8003 Z123.7437 E7.2290
G1 X141.4640 Y1.1135 Z123.7437 E7.2407
G1 X141.2555 Y1.5725 Z123.7437 E7.2571
G1 X140.9913 Y2.2742 Z123.7437 E7.2816
G1 X140.6423 Y3.4188 Z123.7437 E7.3207
G1 X140.1704 Y5.4218 Z123.7437 E7.3879
G1 X139.9303 Y6.8496 Z123.7437 E7.4351
G1 X140.1636 Y6.9457 Z123.7437 E7.4434
G1 X140.9583 Y7.1767 Z123.7437 E7.4704
G1 X141.7338 Y7.3105 Z123.7437 E7.4961
G1 X142.5000 Y7.3543 Z123.7437 E7.5212
G1 X143.2662 Y7.3105 Z123.7437 E7.5462
G1 X144.0417 Y7.1767 Z123.7437 E7.5719
G1 X144.8376 Y6.9452 Z123.7437 E7.5990
G1 X145.0697 Y6.8497 Z123.7437 E7.6072
G1 X144.8296 Y5.4218 Z123.7437 E7.6545
G1 X144.3577 Y3.4188 Z123.7437 E7.7217
G1 X144.0087 Y2.2742 Z123.7437 E7.7607
G1 X143.7445 Y1.5725 Z123.7437 E7.7852
G1 X143.5360 Y1.1135 Z123.7437 E7.8017
G1 X143.3663 Y0.8003 Z123.7437 E7.8133
G1 X143.2261 Y0.5805 Z123.7437 E7.8218
G1 X143.1667 Y0.5009 Z123.7437 E7.8251
G1 X143.1068 Y0.4208 Z123.7437 F4800
; feature solid fill
G1 X143.3579 Y6.1987 Z123.7437
G1 X143.7921 Y5.7646 Z123.7437 E7.8501 F3000
G1 X143.6912 Y5.2997 Z123.7437 E7.8695
G1 X142.7317 Y6.2593 Z123.7437 E7.9249
G1 X142.1715 Y6.2537 Z123.7437 E7.9478
G1 X143.5834 Y4.8419 Z123.7437 E8.0293
G1 X143.4755 Y4.3840 Z123.7437 E8.0485
G1 X141.6581 Y6.2015 Z123.7437 E8.1534
G1 X141.1780 Y6.1159 Z123.7437 E8.1733
G1 X143.3677 Y3.9262 Z123.7437 E8.2997
G1 X143.2475 Y3.4807 Z123.7437 E8.3185
G1 X141.2718 Y5.4564 Z123.7437 E8.4326
G1 X141.4462 Y4.7163 Z123.7437 E8.4636
G1 X143.1153 Y3.0472 Z123.7437 E8.5599
G1 X142.9827 Y2.6142 Z123.7437 E8.5784
G1 X141.6205 Y3.9763 Z123.7437 E8.6571
G1 X141.8412 Y3.1900 Z123.7437 E8.6904
G1 X142.8279 Y2.2032 Z123.7437 E8.7474
G1 X142.3902 Y2.0752 Z123.7437 E8.7660
G1 E4.7660 F1800 ; e-retract 4
;; --- layer 14 (0.200 @ 87.7) ---
G1 F4800
; feature shells
G1 X141.8028 Y2.0435 Z124.0265
G1 E8.7660 F1800 ; e-engage 4
G4 P30
G1 X141.5499 Y2.6000 Z124.0265 E8.7859 F979
G1 X141.2202 Y3.4757 Z124.0265 E8.8165
G1 X140.7771 Y4.9295 Z124.0265 E8.8661
G1 X140.4348 Y6.3822 Z124.0265 E8.9148
G1 X140.4936 Y6.4064 Z124.0265 E8.9169
G1 X141.1820 Y6.6066 Z124.0265 E8.9403
G1 X141.8465 Y6.7212 Z124.0265 E8.9623
G1 X142.5000 Y6.7586 Z124.0265 E8.9837
G1 X143.1535 Y6.7212 Z124.0265 E9.0051
G1 X143.8180 Y6.6066 Z124.0265 E9.0271
G1 X144.5063 Y6.4064 Z124.0265 E9.0505
